!!!!SEGMENT: Ver3029-Pur_troppo_donna.krn
!!!id: Ver3029
!!!AGN: Madrigal
!!!SCT: Slim (1972)
!!!voices: 5
!!!COM: Philippe Verdelot
!!!OTL: Pur troppo, donna
**kern	**kern	**kern	**kern	**kern
*part5	*part4	*part3	*part2	*part1
*staff5	*staff4	*staff3	*staff2	*staff1
*I"Bassus	*I"Tenor II	*I"Tenor I	*I"Altus	*I"Superius
*I'B	*I'T. II	*I'T. I	*I'A	*I'S
*clefF4	*clefGv2	*clefGv2	*clefGv2	*clefG2
*k[b-]	*k[b-]	*k[b-]	*k[b-]	*k[b-]
*F:	*F:	*F:	*F:	*F:
*M2/1	*M2/1	*M2/1	*M2/1	*M2/1
*met(C|)	*met(C|)	*met(C|)	*met(C|)	*met(C|)
=1	=1	=1	=1	=1
1r	0A	0r	0r	0r
[1D	.	.	.	.
=2	=2	=2	=2	=2
1D]	1.B-y	0r	0r	0r
[1E-i	.	.	.	.
.	2A	.	.	.
=3	=3	=3	=3	=3
2E-]	2G	0r	0r	0r
2D	2F	.	.	.
2C	[1G	.	.	.
2BB-y	.	.	.	.
=4	=4	=4	=4	=4
1C	2G]	0r	0r	0r
.	2.A	.	.	.
2.D	.	.	.	.
.	4G	.	.	.
.	4F	.	.	.
4E	4E	.	.	.
=5	=5	=5	=5	=5
2F	2D	0r	0r	0r
2G	2.d	.	.	.
1E	.	.	.	.
.	8c#iL	.	.	.
.	8BniJ	.	.	.
.	2c#i	.	.	.
=6	=6	=6	=6	=6
0D	1d	1r	1r	1r
.	1r	1A	1d	[1a
=7	=7	=7	=7	=7
0r	0r	1.d	1.f	1a]
.	.	.	.	2.b-y
.	.	2d	2f	.
.	.	.	.	4b-y
=8	=8	=8	=8	=8
0r	0r	2c	2e	2a
.	.	2B-y	2d	2g
.	.	2A	2c	[1a
.	.	4D	2d	.
.	.	4E	.	.
=9	=9	=9	=9	=9
0r	0r	4F	4D	1a]
.	.	4G	4E	.
.	.	2A	4F	.
.	.	.	4G	.
.	.	4F	4A	1a
.	.	4G	4B-y	.
.	.	4A	4c	.
.	.	4B-y	4d	.
=10	=10	=10	=10	=10
0r	0r	2c	2e	2g
.	.	2d	1d	2f
.	.	1A	.	1e
.	.	.	2c#i	.
=11	=11	=11	=11	=11
0r	2r	0D	1d	0d
.	2A	.	.	.
.	2A	.	2r	.
.	2A	.	2A	.
=12	=12	=12	=12	=12
1r	1d	1D	2A	0r
.	.	.	2A	.
1GG	1r	2D	2.d	.
.	.	2D	.	.
.	.	.	4c	.
=13	=13	=13	=13	=13
2GG	2r	2.G	2.B-y	0r
2GG	2G	.	.	.
.	.	4F	4A	.
2.C	2G	2.E	2G	.
.	2G	.	2G	.
4BB-y	.	4D	.	.
=14	=14	=14	=14	=14
2.AA	2.c	2C	4A	0r
.	.	.	4G	.
.	.	1F	4A	.
4GG	4B-y	.	4B-y	.
2FF	2A	.	2.c	.
2C	2G	2E	.	.
.	.	.	4B-y	.
=15	=15	=15	=15	=15
2D	2F	1F	2.A	0r
4C	1B-y	.	.	.
4BB-y	.	.	4B-y	.
1F	.	1r	1c	.
.	2A	.	.	.
=16	=16	=16	=16	=16
[0BB-y	0B-y	2r	[0d	1r
.	.	2F	.	.
.	.	2G	.	2r
.	.	2F	.	2f
=17	=17	=17	=17	=17
0BB-]	0r	2.B-y	0d]	2g
.	.	.	.	2f
.	.	4A	.	.
.	.	2G	.	2.b-y
.	.	2F	.	.
.	.	.	.	4a
=18	=18	=18	=18	=18
0r	0r	2E	0r	2g
.	.	2D	.	2f
.	.	2.G	.	2e
.	.	.	.	[2d
.	.	4F	.	.
=19	=19	=19	=19	=19
1r	1r	1E	1G	4d]
.	.	.	.	8c#iL
.	.	.	.	8BniJ
.	.	.	.	2c#i
2r	1F	1D	2A	1d
[2BB-y	.	.	[2B-y	.
=20	=20	=20	=20	=20
2BB-]	2G	0r	2B-]	0r
2C	2.A	.	2A	.
1D	.	.	2F	.
.	4G	.	.	.
.	2F	.	[2A	.
=21	=21	=21	=21	=21
2C	2E	0r	4A]	0r
.	.	.	4G	.
2BB-y	1D	.	1G	.
1AA	.	.	.	.
.	2C	.	2F#i	.
=22	=22	=22	=22	=22
0GG	1D	2r	0G	2r
.	.	2d	.	2b-y
.	1r	2.d	.	2.b-y
.	.	4c	.	4a
=23	=23	=23	=23	=23
0r	0r	2B-y	0r	2g
.	.	2A	.	2f
.	.	2G	.	2g
.	.	2G	.	2d
=24	=24	=24	=24	=24
0r	0r	4B-y	0r	4d
.	.	4c	.	4e
.	.	4d	.	4f
.	.	4B-y	.	4g
.	.	2c	.	2a
.	.	[2d	.	[2b-y
=25	=25	=25	=25	=25
0r	0r	4d]	1r	4b-]
.	.	8cL	.	4a
.	.	8B-yJ	.	.
.	.	2A	.	1a
.	.	1B-y	2r	.
.	.	.	2d	2g
=26	=26	=26	=26	=26
2r	1r	1A	2e	1a
2D	.	.	2f	.
2E	2r	1r	2g	1r
2F	2A	.	2f	.
=27	=27	=27	=27	=27
2G	2B-y	0r	2r	0r
2F	2c	.	2A	.
2r	2d	.	2B-y	.
[2F	2A	.	2c	.
=28	=28	=28	=28	=28
2F]	2A	0r	2d	0r
2F	2A	.	2d	.
[1F	2.A	.	2.c	.
.	4G	.	4c	.
=29	=29	=29	=29	=29
2F]	4A	0r	2d	0r
.	4B-y	.	.	.
2E	2.c	.	2e	.
1D	.	.	1f	.
.	8BniL	.	.	.
.	8AJ	.	.	.
.	2Bni	.	.	.
=30	=30	=30	=30	=30
0C	2.c	2r	[0e	1r
.	.	2G	.	.
.	8B-yL	.	.	.
.	8AJ	.	.	.
.	1G	[1c	.	2r
.	.	.	.	2g
=31	=31	=31	=31	=31
2r	0r	2c]	1e]	1.cc
2C	.	2c	.	.
[1F	.	4A	2r	.
.	.	4G	.	.
.	.	4A	2c	2cc
.	.	4B-y	.	.
=32	=32	=32	=32	=32
2F]	1r	2c	0f	2a
2BB-y	.	2.d	.	2.b-y
2F	2r	.	.	.
.	.	4c	.	4a
2F	2D	2A	.	[2a
=33	=33	=33	=33	=33
1G	0d	1B-y	0r	4a]
.	.	.	.	8gL
.	.	.	.	8fJ
.	.	.	.	2g
[1D	.	[1A	.	[1f
=34	=34	=34	=34	=34
1D]	2r	1A]	0r	0f]
.	2A	.	.	.
2r	2B-y	1r	.	.
2D	2A	.	.	.
=35	=35	=35	=35	=35
2E-i	2G	0r	2r	0r
2D	2F	.	2d	.
2C	2G	.	2e	.
2BB-y	2D	.	2d	.
=36	=36	=36	=36	=36
2C	2.G	0r	2c	0r
2GG	.	.	2B-y	.
.	4F	.	.	.
2.C	4E	.	2c	.
.	4D	.	.	.
.	[2E	.	2G	.
4BB-y	.	.	.	.
=37	=37	=37	=37	=37
1AA	2E]	0r	2c	0r
.	4D	.	2c	.
.	4C	.	.	.
1GG	2.G	.	4B-y	.
.	.	.	4c	.
.	.	.	[2d	.
.	4F	.	.	.
=38	=38	=38	=38	=38
1AA	1E	1r	4d]	1r
.	.	.	8c#iL	.
.	.	.	8BniJ	.
.	.	.	2c#i	.
1r	[1D	2r	[1d	2r
.	.	2A	.	2f
=39	=39	=39	=39	=39
0r	1D]	2B-y	1d]	2f
.	.	2A	.	2f
.	1r	4G	1r	1g
.	.	4A	.	.
.	.	4B-y	.	.
.	.	4c	.	.
=40	=40	=40	=40	=40
2r	2r	0d	2r	1f
2D	2A	.	2f	.
2D	2B-y	.	2f	1r
2D	2A	.	2f	.
=41	=41	=41	=41	=41
1E	4G	2r	1g	1r
.	4A	.	.	.
.	4B-y	2G	.	.
.	4c	.	.	.
1D	1d	[1B-y	2.f	2r
.	.	.	.	2d
.	.	.	4e	.
=42	=42	=42	=42	=42
0r	0r	2B-]	2d	2.f
.	.	2A	2c	.
.	.	.	.	4f
.	.	2G	2B-y	2e
.	.	2F	2A	[2d
=43	=43	=43	=43	=43
2r	1r	1E	1G	2d]
2G	.	.	.	2c#i
2G	2r	1D	1A	2d
2F	2A	.	.	2dd
=44	=44	=44	=44	=44
2G	2B-y	0r	2r	2dd
2E	2G	.	2g	2cc
2D	2A	.	2f	2.dd
2G	2B-y	.	2d	.
.	.	.	.	4cc
=45	=45	=45	=45	=45
2G	2G	2r	2e	2b-y
2F	2A	2d	2f	2a
2G	2B-y	2d	2d	4g
.	.	.	.	4f
2E	2G	2c	2e	4g
.	.	.	.	4a
=46	=46	=46	=46	=46
0D	1F	2.d	[0f	2b-y
.	.	.	.	2a
.	.	4c	.	.
.	1F	2B-y	.	2.dd
.	.	2A	.	.
.	.	.	.	4cc
=47	=47	=47	=47	=47
1D	2r	2.d	1f]	2b-y
.	2d	.	.	2.a
.	.	4c	.	.
2G	2d	2B-y	2d	.
.	.	.	.	4g
2E	2c	2G	2e	[2g
=48	=48	=48	=48	=48
1D	2.d	1A	2f	2g]
.	.	.	2.d	2f#i
.	4c	.	.	.
1GG	2.B-y	2.G	.	1g
.	.	.	4B-y	.
.	.	.	[2e-i	.
.	4A	4A	.	.
=49	=49	=49	=49	=49
1r	2G	2B-y	2e-]	0r
.	2F	1A	1d	.
2r	1E-X	.	.	.
2G	.	2G	2c	.
=50	=50	=50	=50	=50
2G	1D	2A	1d	2r
2F	.	2A	.	2dd
2G	1r	2B-y	2r	2dd
2E	.	2G	2g	2cc
=51	=51	=51	=51	=51
2D	1r	2A	2f	2.dd
2G	.	2B-y	2d	.
.	.	.	.	4cc
2G	2r	2G	2e	2b-y
2F	2d	2A	2f	2a
=52	=52	=52	=52	=52
2G	2d	2B-y	2d	4g
.	.	.	.	4f
2E	2c	2G	2e	4g
.	.	.	.	4a
[1D	2.d	1F	[1f	2b-y
.	.	.	.	2a
.	4c	.	.	.
=53	=53	=53	=53	=53
1D]	2B-y	1F	1f]	2.dd
.	2A	.	.	.
.	.	.	.	4cc
1D	2.d	2r	2.f	2b-y
.	.	2d	.	[2a
.	4c	.	4e	.
=54	=54	=54	=54	=54
2G	2B-y	2d	2d	4a]
.	.	.	.	4g
2E	2G	2c	2e	1g
1D	1A	2.d	2f	.
.	.	.	2d	2f#i
.	.	4c	.	.
=55	=55	=55	=55	=55
2.GG	[0Gl	2.B-y	2r	[0gl
.	.	.	2d	.
4AA	.	4A	.	.
1BB-y	.	2G	2d	.
.	.	2F	2d	.
=56	=56	=56	=56	=56
0C	0G_	0E	0c	0g_
=57	=57	=57	=57	=57
00GGl	00G]	00Dl	00B-yl	00g]
==	==	==	==	==
*-	*-	*-	*-	*-
!!!system-decoration: [*]
!!!RDF**kern: i = editorial accidental
!!!RDF**kern: l = terminal long
!!!ENC: Benjamin Ory
!!!END: 2021/4/15
!!!EED: Benjamin Ory
!!!EEV: 2021/04/29
!!!YEC: Copyright 2021 Benjamin Ory, All Rights Reserved
!!!ONB: Translated from MusicXML on 2021/04/29
